packages/foundations/assets/icons/functional/images/navigation/gear_wheel_32.svg

<svg width="32" height="32" viewBox="0 0 32 32" fill="none" xmlns="http://www.w3.org/2000/svg">
<g clip-path="url(#clip0_187_29)">
<path fill-rule="evenodd" clip-rule="evenodd" d="M20.4568 3.50845L20.2998 5.76823L22.7165 7.1492L24.5997 5.92521C24.7682 5.81563 24.9449 5.73679 25.1333 5.73679C26.6566 5.73679 29.59 11.2164 29.59 12.7045C29.59 13.0812 29.3769 13.4388 29.0251 13.6147L27.0164 14.619V17.381L29.0251 18.3853C29.3769 18.5612 29.59 18.9188 29.59 19.2955C29.59 20.823 26.4756 26.2632 25.1333 26.2632C24.9449 26.2632 24.7682 26.1844 24.5997 26.0748L22.7165 24.8508L20.2998 26.2318L20.4568 28.4601C20.5487 29.7656 18.051 29.9981 16 29.9981C14.0631 29.9981 11.449 29.7978 11.5432 28.4601L11.7002 26.2318L9.28341 24.8508L7.40026 26.0748C7.23174 26.1844 7.05507 26.2632 6.86666 26.2632C5.45183 26.2632 2.40997 20.8038 2.40997 19.2641C2.40997 18.9188 2.63565 18.555 2.97482 18.3853L4.98351 17.381V14.619L2.97482 13.6147C2.6231 13.4388 2.40997 13.0812 2.40997 12.7045C2.40997 11.2204 5.42572 5.73679 6.86666 5.73679C7.05507 5.73679 7.23174 5.81563 7.40026 5.92521L9.28341 7.1492L11.7002 5.76823L11.5746 3.50845C11.5054 2.26368 13.7481 2.01725 15.7959 2.00265L16 2.00193C17.9401 2.00193 20.5466 2.21375 20.4568 3.50845ZM16 3.97919C15.2154 3.97919 14.3992 4.0734 13.6147 4.23028L13.7402 6.2704C13.7633 6.64633 13.5551 6.99775 13.238 7.18064L9.75415 9.18933C9.59566 9.28073 9.44039 9.31487 9.25198 9.31487C9.06376 9.31487 8.88569 9.26938 8.71847 9.1579L7.02363 8.02801C5.95652 9.252 5.14049 10.6644 4.63831 12.2024L6.42735 13.1125C6.76532 13.2844 6.9922 13.6147 6.9922 13.9913V18.0087C6.9922 18.3853 6.76652 18.7179 6.42735 18.8875L4.60688 19.7976C5.14049 21.3356 5.95652 22.748 7.02363 23.9406L8.71847 22.8421C8.8871 22.7328 9.06376 22.6538 9.25198 22.6538C9.44039 22.6538 9.59506 22.7204 9.75415 22.8107L13.238 24.788C13.5563 24.9687 13.7633 25.3537 13.7402 25.7296L13.6147 27.7697C14.3992 27.9266 15.2154 28.0208 16 28.0208C16.7846 28.0208 17.6007 27.9266 18.3853 27.7697L18.2598 25.7296C18.2367 25.3537 18.4436 24.9687 18.7619 24.788L22.2458 22.8107C22.4049 22.7204 22.5596 22.6538 22.748 22.6538C22.9362 22.6538 23.1119 22.7342 23.2815 22.8421L25.0077 23.9406C26.0434 22.748 26.8595 21.3356 27.3931 19.7976L25.5726 18.8875C25.2334 18.7179 25.0077 18.3853 25.0077 18.0087V13.9913C25.0077 13.6147 25.2334 13.2821 25.5726 13.1125L27.3931 12.2024C26.8595 10.6644 26.0434 9.252 24.9763 8.02801L23.2815 9.1579C23.1143 9.26938 22.9362 9.31487 22.748 9.31487C22.5596 9.31487 22.4043 9.28073 22.2458 9.18933L18.7619 7.18064C18.4449 6.99775 18.2367 6.64633 18.2598 6.2704L18.3853 4.23028C17.6007 4.0734 16.7846 3.97919 16 3.97919ZM16 11.0019C18.7672 11.0019 21 13.2347 21 16.0019C21 18.7692 18.7672 21.0019 16 21.0019C13.2327 21.0019 11 18.7692 11 16.0019C11 13.2347 13.2327 11.0019 16 11.0019ZM16 13.0019C14.3438 13.0019 13 14.3457 13 16.0019C13 17.6581 14.3438 19.0019 16 19.0019C17.6562 19.0019 19 17.6581 19 16.0019C19 14.3457 17.6562 13.0019 16 13.0019Z" fill="#1A1C1F"/>
</g>
<defs>
<clipPath id="clip0_187_29">
<rect width="32" height="32" fill="white"/>
</clipPath>
</defs>
</svg>

<svg xmlns="http://www.w3.org/2000/svg" width="32" height="32" fill="none"><g clip-path="url(#a)"><path fill="#1A1C1F" fill-rule="evenodd" d="m20.457 3.508-.157 2.26 2.416 1.381L24.6 5.925c.168-.11.345-.188.533-.188 1.524 0 4.457 5.48 4.457 6.967 0 .377-.213.735-.565.91l-2.009 1.005v2.762l2.01 1.004c.35.176.564.534.564.91 0 1.528-3.114 6.968-4.457 6.968-.188 0-.365-.079-.533-.188l-1.884-1.224-2.416 1.38.157 2.23c.092 1.305-2.406 1.537-4.457 1.537-1.937 0-4.551-.2-4.457-1.538l.157-2.228-2.417-1.381L7.4 26.075c-.168.11-.345.188-.533.188-1.415 0-4.457-5.46-4.457-6.999 0-.345.226-.709.565-.879l2.009-1.004v-2.762l-2.01-1.004a1.02 1.02 0 0 1-.564-.91c0-1.485 3.016-6.968 4.457-6.968.188 0 .365.079.533.188L9.283 7.15 11.7 5.77l-.125-2.26c-.07-1.245 2.173-1.492 4.22-1.506L16 2.002c1.94 0 4.547.212 4.457 1.506M16 3.98c-.785 0-1.6.094-2.385.251l.125 2.04a.99.99 0 0 1-.502.91L9.754 9.19a.95.95 0 0 1-.502.125.93.93 0 0 1-.534-.157l-1.694-1.13a12 12 0 0 0-2.386 4.174l1.79.91c.337.172.564.503.564.88v4.017a.99.99 0 0 1-.565.878l-1.82.91a12.2 12.2 0 0 0 2.417 4.144l1.694-1.099c.17-.11.346-.188.534-.188s.343.066.502.157l3.484 1.977c.318.18.525.566.502.942l-.125 2.04c.784.157 1.6.25 2.385.25s1.6-.093 2.385-.25l-.125-2.04a1.04 1.04 0 0 1 .502-.942l3.484-1.977c.159-.09.314-.157.502-.157s.364.08.534.188l1.726 1.099a12.7 12.7 0 0 0 2.385-4.143l-1.82-.91a.99.99 0 0 1-.565-.88v-4.017a.99.99 0 0 1 .565-.878l1.82-.91a12.6 12.6 0 0 0-2.417-4.175l-1.694 1.13a.93.93 0 0 1-.534.157.95.95 0 0 1-.502-.126l-3.484-2.008a.99.99 0 0 1-.502-.91l.125-2.04A12.3 12.3 0 0 0 16 3.978m0 7.023c2.767 0 5 2.233 5 5s-2.233 5-5 5-5-2.233-5-5 2.233-5 5-5m0 2a3 3 0 1 0 .002 6.002A3 3 0 0 0 16 13.002" clip-rule="evenodd"/></g><defs><clipPath id="a"><path fill="#fff" d="M0 0h32v32H0z"/></clipPath></defs></svg>
